X:1
T:Full Surrender
T:Full Surrender
T:William James Kirkpatrick
T:Charles William Liquorice Christien, 1880
T:Public Domain Courtesy of the Cyber Hymnal™
C:William James Kirkpatrick
Z:Public Domain
Z:Courtesy of the Cyber Hymnal™
%%score ( 1 2 ) ( 3 4 )
L:1/8
Q:1/4=98
M:6/8
K:A
V:1 treble 
V:2 treble 
V:3 bass 
V:4 bass 
V:1
 [CE]2 [CE] [CA]2 [CA] | (Bc)[DB] [CA]2 [CE] | [DF]2 [DF] ([FA][EG])[DF] | [CE]3- [CE]2 z | %4
w: 1.~Lord, I make a|full * sur- ren- der,|All I yield * to|Thee; *|
w: 2.~Lord, I bring my|whole * af- fec- tion,|Claim it for * Thine|own; *|
w: 3.~Lord, my will I|here * pre- sent Thee,|Now no lon- * ger|mine; *|
w: 4.~Lord, my life I|lay * be- fore Thee,|Hear the sac- * red|vow! *|
w: 5.~Bless- èd Spir- it!|Thou * hast brought me|Thus my all * to|give; *|
 [EA]2 [EA] [EB]2 [EB] | ([Ec][Fd])[Ec] (BA)[DF] | [CE]2 [CE] [Ec]2 [DB] | [CA]3- [CA]2 z || %8
w: For Thy love, so|great * and ten- * der,|Asks the gift of|me. *|
w: Safe- ly kept by|Thy * pro- tec- * tion,|Fixed on Thee a-|lone. *|
w: Let no e- vil|thing * pre- vent * me|Blen- ding it with|Thine. *|
w: All Thine own I|now * res- tore * Thee,|Thine for- ev- er|now. *|
w: For the blood of|Christ * has bought * me,|And by faith I|live. *|
"^Refrain" [EB]3 [EB][Ec][DB] | [CA]3 [CA]2 z | [Ec]3 [Ec][EB][EA] | [GB]3 [Ge]2 z | %12
w: ||||
w: ||||
w: ||||
w: ||||
w: ||||
 [Ae]2 [Ae] [Ae][Ac][EB] | [EA]3 [Ec]2 z | [EB]3 Bc[DB] | [CA]3- [CA]2 z |] %16
w: ||||
w: ||||
w: ||||
w: ||||
w: ||||
V:2
 x6 | E2 x4 | x6 | x6 | x6 | x3 D2 x | x6 | x6 || x6 | x6 | x6 | x6 | x6 | x6 | x3 E2 x | x6 |] %16
V:3
 [A,,A,]2 [A,,A,] [A,,E,]2 [A,,E,] | [E,G,]2 [E,G,] [A,,A,]2 [A,,A,] | %2
w: ~ ~ ~ ~|~ ~ ~ ~|
 [D,A,]2 [D,A,] [D,A,]2 [D,A,] | [A,,A,]3- [A,,A,]2 z | [C,A,]2 [C,A,] [E,G,]2 [E,G,] | %5
w: ~ ~ ~ ~|~ *|~ ~ ~ ~|
 A,2 A, [D,F,]2 [D,A,] | [E,A,]2 [E,A,] [E,A,]2 [E,G,] | [A,,A,]3- [A,,A,]2 z || %8
w: ~ ~ ~ ~|~ ~ ~ ~|~ *|
 [E,G,]3 [E,G,][E,A,][E,G,] | [A,,A,]3 [A,,A,]2 z | A,3 A,[A,D][A,C] | [E,E]3 [E,B,]2 z | %12
w: Dear Sav- ior, re-|ceive me;|Thou, Ho- ly One,|bless me;|
 [A,C]2 [A,C] [A,C][A,E][A,D] | [A,C]3 A,2 z | [E,G,]3 [E,G,]2 [E,G,] | [A,,E,A,]3- [A,,E,A,]2 z |] %16
w: Here I ful- ly sur-|ren- der|All, all to|Thee. *|
V:4
 x6 | x6 | x6 | x6 | x6 | A,2 A, x3 | x6 | x6 || x6 | x6 | A,3 A, x2 | x6 | x6 | x3 A,2 x | x6 | %15
 x6 |] %16

